website/public/Images/svg/wheel.svg

<svg width="32" height="32" viewBox="0 0 32 32" fill="none" xmlns="http://www.w3.org/2000/svg">
<path d="M31.133 19.54C31.0848 19.54 31.0366 19.54 31.0366 19.4906C31.0366 19.4411 30.9403 19.4411 30.844 19.4411C30.6513 19.3917 30.4586 19.3917 30.2659 19.3917C30.1696 19.3917 30.0733 19.3917 29.9769 19.3422H29.9288C29.3989 19.2928 28.8209 19.1939 28.2911 19.0456C28.1466 18.9961 28.002 18.8478 27.9539 18.6995C28.002 18.6995 27.9539 18.6995 27.9539 18.6995L27.5685 18.6006C27.7612 17.1667 27.6649 15.6833 27.3759 14.2495C27.0387 12.8156 26.4607 11.4311 25.69 10.195L25.979 9.89835V9.84891C25.979 9.70058 26.0272 9.5028 26.1235 9.40391C26.557 9.00835 26.9905 8.71169 27.4722 8.41502C27.5685 8.36558 27.6649 8.31613 27.7612 8.26669C27.9539 8.1678 28.0984 8.06891 28.2911 7.97002C28.3392 7.92058 28.3874 7.92058 28.4356 7.87113C28.4837 7.82169 28.4356 7.82169 28.4356 7.77224C28.8691 7.42613 28.9654 6.8328 28.6282 6.3878C28.4837 6.19002 28.1947 6.04169 27.9539 6.04169C27.713 6.04169 27.4722 6.14058 27.2795 6.28891L27.2314 6.33836C27.1832 6.3878 27.135 6.43725 27.0869 6.43725C26.9423 6.58558 26.7978 6.73391 26.7015 6.88225C26.6533 6.98113 26.557 7.03058 26.5088 7.08002C26.1717 7.47558 25.7381 7.87113 25.3046 8.1678C25.2083 8.21724 25.112 8.26669 25.0156 8.26669C24.9675 8.26669 24.8711 8.26669 24.823 8.21724H24.7748L24.3894 8.46447C24.0041 8.06891 23.5706 7.67336 23.1852 7.2778C21.403 5.84391 19.1873 4.95391 16.9234 4.70669L16.8752 4.31114V4.36058C16.7307 4.26169 16.6826 4.11336 16.6344 3.96503C16.6344 3.42114 16.6344 2.87725 16.7307 2.28392V2.23447C16.7307 2.13558 16.7789 2.03669 16.7789 1.93781C16.8271 1.74003 16.8271 1.54225 16.8752 1.34447V1.04781C16.9234 0.553362 16.538 0.058918 16.0564 0.00947364C15.7674 -0.0399708 15.4784 0.108362 15.2375 0.355584C15.0448 0.553362 14.9485 0.800584 14.9485 1.04781V1.29503C14.9485 1.49281 14.9967 1.69058 15.0448 1.88836C15.093 1.98725 15.093 2.08614 15.093 2.18503V2.23447C15.1893 2.77836 15.1893 3.32225 15.1893 3.91558C15.1412 4.06391 15.093 4.21225 14.9485 4.31114V4.41003L14.9003 4.80558C14.3705 4.85502 13.8406 4.95391 13.2626 5.0528C10.9987 5.54725 8.92749 6.78336 7.33795 8.51391L7.04894 8.31613H7.00077C6.9526 8.31613 6.90444 8.36558 6.8081 8.36558C6.71176 8.36558 6.61543 8.31613 6.51909 8.26669C6.08558 7.92058 5.65207 7.52502 5.31489 7.12947C5.26672 7.03058 5.17039 6.98113 5.12222 6.93169C4.97771 6.78336 4.88138 6.63502 4.73687 6.48669C4.6887 6.43725 4.64054 6.43725 4.59237 6.3878C4.5442 6.33836 4.5442 6.33836 4.5442 6.33836C4.35153 6.19002 4.11069 6.09113 3.86985 6.09113C3.58084 6.09113 3.34 6.19002 3.1955 6.43725C2.90649 6.88225 3.00282 7.47558 3.38817 7.82169C3.43634 7.82169 3.43634 7.87113 3.43634 7.87113C3.43634 7.87113 3.53267 7.97002 3.58084 7.97002C3.72534 8.06891 3.91802 8.1678 4.11069 8.26669C4.20702 8.31613 4.30336 8.36558 4.3997 8.41502C4.88138 8.71169 5.36306 9.00835 5.7484 9.40391C5.84474 9.5028 5.94107 9.70058 5.89291 9.84891V9.79946L6.18191 10.0961C6.13375 10.195 6.08558 10.2445 6.03741 10.3434C4.5442 12.7661 3.91802 15.6339 4.35153 18.4522L3.96618 18.5511C3.96618 18.6006 3.91802 18.6006 3.91802 18.6006C3.86985 18.7489 3.72534 18.8478 3.58084 18.9467C3.05099 19.095 2.52114 19.1939 1.94313 19.2433C1.84679 19.2433 1.75045 19.2433 1.65412 19.2928C1.46144 19.2928 1.26877 19.3422 1.0761 19.3422C1.02793 19.3422 0.979764 19.3917 0.883428 19.3917C0.83526 19.3917 0.83526 19.3917 0.787092 19.4411C0.257243 19.54 -0.0799334 20.0345 0.0164027 20.5783C0.112739 21.0233 0.546251 21.32 0.979764 21.2706C1.0761 21.2706 1.12427 21.2706 1.2206 21.2211C1.26877 21.2211 1.26877 21.2211 1.26877 21.1717C1.26877 21.1222 1.41328 21.1717 1.46144 21.1717C1.65412 21.1222 1.84679 21.0233 1.99129 20.9739C2.08763 20.9245 2.18397 20.875 2.2803 20.875H2.32847C2.85832 20.6772 3.34 20.5289 3.91802 20.43H3.96618C4.11069 20.43 4.25519 20.4795 4.35153 20.5783C4.3997 20.5783 4.3997 20.6278 4.3997 20.6278L4.83321 20.5783C5.55573 22.8528 6.90444 24.88 8.78299 26.3633C9.2165 26.7094 9.60185 27.0061 10.0835 27.2533L9.84269 27.5994C9.84269 27.6489 9.89086 27.6489 9.89086 27.6489C9.98719 27.7972 9.98719 27.995 9.93902 28.1433C9.74635 28.6378 9.45734 29.1322 9.16833 29.5772V29.6267C9.12017 29.7256 9.072 29.775 8.97566 29.8739C8.87933 29.9728 8.78299 30.1706 8.63849 30.3683C8.59032 30.4178 8.59032 30.4672 8.54215 30.5167C8.54215 30.5167 8.54215 30.5661 8.49398 30.5661C8.25314 31.0606 8.44581 31.6539 8.87933 31.9011C8.97566 31.9506 9.12017 32 9.2165 32C9.60185 32 9.93902 31.7528 10.1317 31.4067C10.1317 31.4067 10.1317 31.3572 10.1799 31.3572C10.1799 31.3078 10.228 31.2583 10.2762 31.2089C10.3244 31.0111 10.4207 30.8628 10.4689 30.665L10.5652 30.3683C10.7097 29.8244 10.9506 29.33 11.1914 28.8356C11.2877 28.6872 11.4322 28.5883 11.5767 28.5389C11.6249 28.5389 11.6249 28.5389 11.6249 28.4894L11.8176 28.0939C13.1663 28.6378 14.5632 28.885 16.0082 28.885C16.8752 28.885 17.7423 28.7861 18.6093 28.5389C19.1391 28.44 19.669 28.2422 20.1507 28.0939L20.3433 28.44C20.3915 28.44 20.3915 28.44 20.3915 28.4894C20.536 28.5389 20.6805 28.6378 20.7768 28.7861C21.0177 29.2806 21.2585 29.775 21.403 30.3189V30.3683L21.4994 30.665C21.5475 30.8628 21.5957 31.0606 21.692 31.2089C21.7402 31.2583 21.7402 31.3078 21.7884 31.3572C21.7884 31.3572 21.7884 31.4067 21.8365 31.4067C22.0292 31.7528 22.3664 32 22.7517 32C22.8962 32 22.9926 31.9506 23.1371 31.9011C23.3297 31.8022 23.5224 31.6044 23.5706 31.3572C23.6188 31.11 23.6188 30.8628 23.5224 30.6156C23.5224 30.5661 23.4743 30.5661 23.4743 30.5661C23.4743 30.5167 23.4261 30.4672 23.3779 30.4178C23.2816 30.22 23.1852 30.0717 23.0407 29.9233C22.9926 29.8244 22.9444 29.775 22.8481 29.6761V29.5772C22.5109 29.1322 22.27 28.6378 22.0774 28.1433C22.0292 27.995 22.0292 27.7972 22.1255 27.6489C22.1255 27.5994 22.1737 27.5994 22.1737 27.5994L22.0292 27.2039C24.4858 25.6711 26.3643 23.2978 27.2314 20.4795L27.6167 20.5289C27.6649 20.5289 27.6649 20.4795 27.6649 20.4795C27.7612 20.3806 27.9057 20.3311 28.0502 20.3311H28.0984C28.6282 20.43 29.1581 20.5783 29.6398 20.7761H29.6879C29.7843 20.8256 29.8806 20.875 29.9769 20.875C30.1696 20.9739 30.3141 21.0728 30.5068 21.1222C30.555 21.1222 30.6031 21.1717 30.6995 21.1717C30.7476 21.1717 30.7476 21.1717 30.7958 21.2211C30.8921 21.2706 30.9403 21.2706 31.0366 21.2706C31.4701 21.2706 31.8555 20.9739 32 20.5783C31.9518 20.0345 31.5665 19.6389 31.133 19.54ZM17.2124 18.0072L15.9119 18.65L14.6113 18.0072L14.2741 16.5733L15.1893 15.3867H16.6344L17.5496 16.5733L17.2124 18.0072ZM25.0638 14.7933C25.3046 15.8317 25.3528 16.87 25.2565 17.9083L20.6805 16.5733C20.247 16.4745 20.0061 16.0295 20.1025 15.5845C20.1507 15.4361 20.1988 15.3372 20.2952 15.2383L23.9078 11.8761C24.4376 12.7661 24.823 13.755 25.0638 14.7933ZM22.4627 10.0467L18.5129 12.9145C18.1758 13.1122 17.6941 13.0628 17.4532 12.7167C17.3569 12.6178 17.3087 12.5189 17.3087 12.3706L17.0197 7.37669C19.1391 7.62391 21.0177 8.56335 22.4627 10.0467ZM13.7443 7.52502L14.7077 7.32724L14.4668 12.2717C14.4668 12.7167 14.0815 13.0628 13.648 13.0628C13.5035 13.0628 13.4071 13.0134 13.2626 12.9639L9.26467 10.0467C10.517 8.81058 12.0584 7.92058 13.7443 7.52502ZM7.8678 11.8761L11.4322 15.1395C11.7694 15.4361 11.8176 15.9306 11.5286 16.2767C11.4322 16.425 11.3359 16.4745 11.1432 16.5239L6.47092 17.9083C6.32642 15.8317 6.8081 13.7056 7.8678 11.8761ZM7.04894 20.2322L11.8176 19.3917C12.2029 19.3917 12.5883 19.6389 12.6364 20.0345C12.6846 20.1828 12.6846 20.3806 12.5883 20.5289L10.7579 25.0778C9.072 23.9406 7.72329 22.21 7.04894 20.2322ZM17.9831 26.3633C17.3087 26.5117 16.6344 26.6106 15.9119 26.6106C14.9003 26.6106 13.8406 26.4128 12.8773 26.1161L15.2375 21.7156C15.4784 21.4189 15.8637 21.32 16.2009 21.5178C16.3454 21.6167 16.4417 21.7156 16.5862 21.8639L18.8983 26.1656C18.6093 26.215 18.3203 26.2645 17.9831 26.3633ZM23.8596 22.0617C23.1371 23.2483 22.1255 24.2867 20.9695 25.0283L19.091 20.3806C18.9946 19.985 19.1873 19.5895 19.5245 19.4411C19.669 19.3917 19.8135 19.3422 19.958 19.3422L24.7748 20.1828C24.5339 20.875 24.2449 21.5178 23.8596 22.0617Z" fill="url(#paint0_linear)"/>
<defs>
<linearGradient id="paint0_linear" x1="16" y1="0" x2="16" y2="32" gradientUnits="userSpaceOnUse">
<stop stop-color="#184A85"/>
<stop offset="1" stop-color="#8DD6E4"/>
</linearGradient>
</defs>
</svg>

<svg xmlns="http://www.w3.org/2000/svg" width="32" height="32" fill="none" xmlns:v="https://vecta.io/nano"><path d="M31.133 19.54c-.048 0-.096 0-.096-.049s-.096-.05-.193-.05c-.193-.049-.385-.049-.578-.049-.096 0-.193 0-.289-.05h-.048c-.53-.049-1.108-.148-1.638-.297a.59.59 0 0 1-.337-.346h0l-.385-.099c.193-1.434.096-2.917-.193-4.351-.337-1.434-.915-2.818-1.686-4.054l.289-.297v-.049c0-.148.048-.346.145-.445.433-.396.867-.692 1.349-.989l.289-.148.53-.297c.048-.049.096-.049.145-.099s0-.049 0-.099c.433-.346.53-.939.193-1.384-.145-.198-.433-.346-.674-.346s-.482.099-.674.247l-.048.049c-.048.049-.096.099-.145.099-.145.148-.289.297-.385.445-.048.099-.145.148-.193.198-.337.396-.771.791-1.204 1.088-.096.049-.193.099-.289.099-.048 0-.145 0-.193-.049h-.048l-.385.247-1.204-1.187c-1.782-1.434-3.998-2.324-6.262-2.571l-.048-.396v.049c-.145-.099-.193-.247-.241-.396 0-.544 0-1.088.096-1.681v-.049c0-.099.048-.198.048-.297.048-.198.048-.396.096-.593v-.297c.048-.494-.337-.989-.819-1.038-.289-.049-.578.099-.819.346a.99.99 0 0 0-.289.692v.247c0 .198.048.396.096.593.048.099.048.198.048.297v.049c.096.544.096 1.088.096 1.681-.048.148-.096.297-.241.396v.099l-.048.396c-.53.049-1.06.148-1.638.247-2.264.494-4.335 1.731-5.925 3.461l-.289-.198h-.048c-.048 0-.096.049-.193.049s-.193-.049-.289-.099c-.434-.346-.867-.742-1.204-1.137-.048-.099-.144-.148-.193-.198-.145-.148-.241-.297-.385-.445-.048-.049-.096-.049-.144-.099l-.048-.049c-.193-.148-.434-.247-.674-.247-.289 0-.53.099-.674.346-.289.445-.193 1.038.193 1.384.048 0 .048.049.048.049s.096.099.144.099c.145.099.337.198.53.297l.289.148c.482.297.963.593 1.349.989.096.099.193.297.145.445v-.049l.289.297c-.048.099-.096.148-.144.247-1.493 2.423-2.119 5.291-1.686 8.109l-.385.099c0 .049-.048.049-.048.049-.048.148-.193.247-.337.346-.53.148-1.06.247-1.638.297-.096 0-.193 0-.289.049-.193 0-.385.049-.578.049-.048 0-.096.05-.193.05-.048 0-.048 0-.096.049-.53.099-.867.593-.771 1.137.096.445.53.742.963.692.096 0 .145 0 .241-.05.048 0 .048 0 .048-.049s.145 0 .193 0c.193-.05.385-.148.53-.198.096-.049.193-.099.289-.099h.048c.53-.198 1.012-.346 1.59-.445h.048a.54.54 0 0 1 .385.148c.048 0 .048.05.048.05l.434-.05c.723 2.274 2.071 4.302 3.95 5.785.434.346.819.643 1.301.89l-.241.346c0 .05.048.05.048.05.096.148.096.346.048.494-.193.494-.482.989-.771 1.434v.049c-.048.099-.096.148-.193.247s-.193.297-.337.494c-.048.049-.048.099-.096.148 0 0 0 .049-.048.049-.241.495-.048 1.088.385 1.335.096.05.241.099.337.099.385 0 .723-.247.915-.593 0 0 0-.05.048-.05 0-.049.048-.099.096-.148.048-.198.145-.346.193-.544l.096-.297c.144-.544.385-1.038.626-1.533a.75.75 0 0 1 .385-.297c.048 0 .048 0 .048-.05l.193-.395c1.349.544 2.746.791 4.191.791.867 0 1.734-.099 2.601-.346.53-.099 1.06-.297 1.541-.445l.193.346c.048 0 .048 0 .048.049a.75.75 0 0 1 .385.297c.241.494.482.989.626 1.533v.049l.096.297c.048.198.096.396.193.544.048.049.048.099.096.148 0 0 0 .05.048.05.193.346.53.593.915.593.145 0 .241-.049.385-.099.193-.099.385-.297.433-.544s.048-.494-.048-.742c0-.05-.048-.05-.048-.05 0-.049-.048-.099-.096-.148-.096-.198-.193-.346-.337-.494-.048-.099-.096-.148-.193-.247v-.099c-.337-.445-.578-.939-.771-1.434-.048-.148-.048-.346.048-.494 0-.05.048-.05.048-.05l-.145-.395c2.457-1.533 4.335-3.906 5.202-6.724l.385.049c.048 0 .048-.049.048-.049a.54.54 0 0 1 .385-.148h.048c.53.099 1.06.247 1.541.445h.048c.096.05.193.099.289.099.193.099.337.198.53.247.048 0 .096.05.193.05.048 0 .048 0 .096.049.096.05.145.05.241.05a1.05 1.05 0 0 0 .963-.692c-.048-.544-.433-.939-.867-1.038zm-13.921-1.533l-1.3.643-1.301-.643-.337-1.434.915-1.187h1.445l.915 1.187-.337 1.434zm7.851-3.214c.241 1.038.289 2.077.193 3.115l-4.576-1.335c-.433-.099-.674-.544-.578-.989.048-.148.096-.247.193-.346l3.613-3.362c.53.89.915 1.879 1.156 2.917zm-2.601-4.747l-3.95 2.868c-.337.198-.819.148-1.06-.198-.096-.099-.144-.198-.144-.346l-.289-4.994a8.97 8.97 0 0 1 5.443 2.67zm-8.718-2.522l.963-.198-.241 4.944c0 .445-.385.791-.819.791-.144 0-.241-.049-.385-.099l-3.998-2.917c1.252-1.236 2.794-2.126 4.48-2.522zm-5.877 4.351l3.564 3.263c.337.297.385.791.096 1.137-.096.148-.193.198-.385.247l-4.672 1.384a10.63 10.63 0 0 1 1.397-6.032zm-.819 8.356l4.769-.84c.385 0 .771.247.819.643.048.148.048.346-.048.494l-1.83 4.549a9.69 9.69 0 0 1-3.709-4.846zm10.934 6.131c-.674.148-1.349.247-2.071.247-1.012 0-2.071-.198-3.035-.495l2.36-4.401c.241-.297.626-.396.963-.198.145.099.241.198.385.346l2.312 4.302-.915.198zm5.877-4.302c-.723 1.187-1.734 2.225-2.89 2.967l-1.878-4.648c-.096-.396.096-.791.433-.94.145-.049.289-.099.433-.099l4.817.841c-.241.692-.53 1.335-.915 1.879z" fill="url(#A)"/><defs><linearGradient id="A" x1="16" y1="0" x2="16" y2="32" gradientUnits="userSpaceOnUse"><stop stop-color="#184a85"/><stop offset="1" stop-color="#8dd6e4"/></linearGradient></defs></svg>
